app/assets/images/payment_icons/aktia.svg

<svg xmlns="http://www.w3.org/2000/svg" width="38" height="24" viewBox="0 0 38 24" fill="none" aria-labelledby="pi-aktia" role="img"><title id="pi-aktia">Aktia</title><rect width="38" height="24" fill="white"/><path d="M28 9.82002H26.23V17.61H28V9.82002ZM9 13.05H6L7.47 9.05002L9 13.05ZM10.71 17.61H12.57L8.39 6.84002H6.64L2.5 17.61H4.34L5.45 14.61H9.57L10.71 17.61ZM16.83 13.19L20.15 9.82002H17.87L14.82 13V6.21002H13.07V17.61H14.82V15L15.54 14.27L18.12 17.58H20.24L16.83 13.19ZM23.74 17.79C24.1761 17.7965 24.6077 17.7006 25 17.51V15.91C24.7051 16.1121 24.3574 16.2233 24 16.23C23.8755 16.2478 23.7485 16.2367 23.629 16.1976C23.5094 16.1584 23.4005 16.0923 23.3106 16.0043C23.2207 15.9164 23.1522 15.8089 23.1105 15.6902C23.0688 15.5716 23.0549 15.4449 23.07 15.32V11.32H24.83V9.82002H23.1V7.74002H21.35V9.82002H20.12V11.28H21.35V15.51C21.3242 15.8229 21.3682 16.1377 21.4788 16.4316C21.5894 16.7254 21.764 16.991 21.9898 17.2092C22.2156 17.4273 22.4871 17.5926 22.7846 17.6931C23.0821 17.7935 23.3982 17.8266 23.71 17.79M28.19 7.47002C28.194 7.25321 28.1332 7.04014 28.0154 6.85806C27.8976 6.67598 27.7282 6.53317 27.5288 6.44789C27.3295 6.36261 27.1092 6.33874 26.8962 6.37933C26.6831 6.41992 26.4871 6.52312 26.333 6.67574C26.179 6.82836 26.074 7.02347 26.0314 7.2361C25.9888 7.44873 26.0106 7.66922 26.0941 7.86938C26.1775 8.06955 26.3187 8.24028 26.4997 8.35974C26.6807 8.47921 26.8932 8.54197 27.11 8.54002C27.3939 8.53746 27.6656 8.42422 27.8673 8.22439C28.069 8.02456 28.1848 7.7539 28.19 7.47002M33.83 15.54C33.6661 15.8079 33.4299 16.0241 33.1487 16.1638C32.8674 16.3036 32.5525 16.3612 32.24 16.33C31.45 16.33 30.62 16 30.62 15.21C30.62 14.42 31.45 14.11 32.24 14.11C32.5514 14.0791 32.8652 14.1357 33.1461 14.2735C33.4271 14.4113 33.6639 14.6248 33.83 14.89V15.54ZM35.5 17.61V12.51C35.5 10.74 34.34 9.65002 32.38 9.65002C31.675 9.61929 30.9818 9.83806 30.4221 10.2679C29.8625 10.6977 29.4722 11.311 29.32 12H31C31.0935 11.7299 31.2761 11.4996 31.5178 11.347C31.7595 11.1943 32.0459 11.1284 32.33 11.16C32.5233 11.138 32.7191 11.1583 32.9038 11.2196C33.0884 11.2809 33.2575 11.3816 33.3993 11.5148C33.5411 11.6481 33.6522 11.8106 33.7248 11.9911C33.7975 12.1716 33.83 12.3657 33.82 12.56V13.2C33.2688 12.874 32.6404 12.7014 32 12.7C30.28 12.7 29 13.7 29 15.21C29.0103 15.5726 29.0956 15.9292 29.2504 16.2573C29.4052 16.5854 29.6262 16.8779 29.8995 17.1165C30.1728 17.355 30.4925 17.5345 30.8385 17.6435C31.1845 17.7525 31.5493 17.7888 31.91 17.75C32.5984 17.7769 33.2766 17.5766 33.84 17.18V17.61H35.5Z" fill="#00EB64"/></svg>

<svg xmlns="http://www.w3.org/2000/svg" role="img" viewBox="0 0 38 24" width="38" height="24" aria-labelledby="pi-aktia"><title id="pi-aktia">Aktia</title><path fill="#000" opacity=".07" d="M35 0H3C1.3 0 0 1.3 0 3v18c0 1.7 1.4 3 3 3h32c1.7 0 3-1.3 3-3V3c0-1.7-1.4-3-3-3z"/><path fill="#fff" d="M35 1c1.1 0 2 .9 2 2v18c0 1.1-.9 2-2 2H3c-1.1 0-2-.9-2-2V3c0-1.1.9-2 2-2h32"/><path d="M28 9.82h-1.77v7.79H28zM9 13.05H6l1.47-4zm1.71 4.56h1.86L8.39 6.84H6.64L2.5 17.61h1.84l1.11-3h4.12zm6.12-4.42l3.32-3.37h-2.28L14.82 13V6.21h-1.75v11.4h1.75V15l.72-.73 2.58 3.31h2.12zm6.91 4.6a2.79 2.79 0 001.26-.28v-1.6a1.83 1.83 0 01-1 .32.82.82 0 01-.93-.91v-4h1.76v-1.5H23.1V7.74h-1.75v2.08h-1.23v1.46h1.23v4.23a2.12 2.12 0 002.36 2.28m4.48-10.32a1.09 1.09 0 10-1.08 1.07 1.09 1.09 0 001.08-1.07m5.64 8.07a1.67 1.67 0 01-1.59.79c-.79 0-1.62-.33-1.62-1.12s.83-1.1 1.62-1.1a1.68 1.68 0 011.59.78zm1.67 2.07v-5.1c0-1.77-1.16-2.86-3.12-2.86A3 3 0 0029.32 12H31a1.26 1.26 0 011.33-.84 1.34 1.34 0 011.49 1.4v.64a3.59 3.59 0 00-1.82-.5c-1.72 0-3 1-3 2.51a2.63 2.63 0 002.91 2.54 3.14 3.14 0 001.93-.57v.43z" fill="#00eb64"/></svg>
